DIBUJABLE/aimg/pincel.svg

<svg clip-rule="evenodd" fill-rule="evenodd" stroke-linejoin="round" stroke-miterlimit="2" viewBox="0 0 30 30" xmlns="http://www.w3.org/2000/svg"><g fill="#fff"><path d="m17.363 13.303c.123.044.262.023.37-.054.108-.078.173-.203.173-.334.002-1.636.002-6.052.002-6.052 0-.515-.418-.934-.934-.934h-3.948c-.516 0-.934.419-.934.934v6.08c0 .129.062.248.167.321.104.073.239.09.361.046.739-.255 1.541-.394 2.38-.394.833 0 1.629.137 2.363.387z" transform="matrix(.97305 .999473 -.97305 .999473 15.3733 -15.3215)"/><path d="m16.804 13.193c-3.485-3.579-8.84-3.782-11.944-.594-.945.97-1.563 2.68-1.861 4.643-.601 3.955-.054 8.95-.054 8.95.072.65.571 1.163 1.203 1.236 0 0 4.863.562 8.715-.055 1.91-.306 3.575-.941 4.519-1.911 3.104-3.189 2.906-8.69-.578-12.269z" transform="matrix(.852813 0 0 .852813 2.28901 2.1312)"/></g></svg>

<?xml version="1.0" encoding="UTF-8" standalone="no"?>
<!DOCTYPE svg PUBLIC "-//W3C//DTD SVG 1.1//EN" "http://www.w3.org/Graphics/SVG/1.1/DTD/svg11.dtd">
<svg width="100%" height="100%" viewBox="0 0 30 30" version="1.1" xmlns="http://www.w3.org/2000/svg" xmlns:xlink="http://www.w3.org/1999/xlink" xml:space="preserve" xmlns:serif="http://www.serif.com/" style="fill-rule:evenodd;clip-rule:evenodd;stroke-linejoin:round;stroke-miterlimit:2;">
    <g>
        <g transform="matrix(0.97305,0.999473,-0.97305,0.999473,15.3733,-15.3215)">
            <path d="M17.363,13.303C17.486,13.347 17.625,13.326 17.733,13.249C17.841,13.171 17.906,13.046 17.906,12.915C17.908,11.279 17.908,6.863 17.908,6.863C17.908,6.348 17.49,5.929 16.974,5.929L13.026,5.929C12.51,5.929 12.092,6.348 12.092,6.863L12.092,12.943C12.092,13.072 12.154,13.191 12.259,13.264C12.363,13.337 12.498,13.354 12.62,13.31C13.359,13.055 14.161,12.916 15,12.916C15.833,12.916 16.629,13.053 17.363,13.303Z" style="fill:white;"/>
        </g>
        <g transform="matrix(0.852813,0,0,0.852813,2.28901,2.1312)">
            <path d="M16.804,13.193C13.319,9.614 7.964,9.411 4.86,12.599C3.915,13.569 3.297,15.279 2.999,17.242C2.398,21.197 2.945,26.192 2.945,26.192C3.017,26.842 3.516,27.355 4.148,27.428C4.148,27.428 9.011,27.99 12.863,27.373C14.773,27.067 16.438,26.432 17.382,25.462C20.486,22.273 20.288,16.772 16.804,13.193Z" style="fill:white;"/>
        </g>
    </g>
</svg>
